X:15
T: CHRISTINCHEN GIENG INN GARTEN
N: E0002C
O: Europa, Mitteleuropa, Deutschland, Corvey
R: Sage, Maerchen -, Zauber - Lied
M: 4/4
L: 1/16
K: Eb
E2G2 | B6A2G4c4 | B3AG4z4
E2G2 | B6A2G4c4 | B3AG4z4
E2F2 | G4E4E4G4 | B4F2F2F4
F4 | G4E4E4G4 | B4F2G2E4

@@@ Tune index: 3665
